src/assets/images/ranks/team_gold_2.svg

<svg height="240" viewBox="0 0 160 240" width="160" xmlns="http://www.w3.org/2000/svg" xmlns:xlink="http://www.w3.org/1999/xlink"><defs><path id="a" d="m6 44.0429903c13.3671046-10.0286602 31.4186929-15.0429903 54.1547651-15.0429903 22.7360721 0 40.7876609 5.0143301 54.1547649 15.0429903v64.4699587c-17.291203 22.991367-35.6831927 34.487051-55.1759691 34.487051-19.4927763 0-37.2039633-11.495684-53.1335609-34.487051z"/><mask id="b" fill="#fff"><use fill="#fff" fill-rule="evenodd" xlink:href="#a"/></mask></defs><g fill="none" fill-rule="evenodd"><g transform="translate(20 43)"><g fill="#6d5710"><path d="m31 120h58v36l-29 19.440402-29-19.440402z"/><path d="m9 11.2148438c12-7.47656255 28.8333333-11.2148438 50.5-11.2148438s38.5 3.73828125 50.5 11.2148438l-10 43h-81z"/><path d="m0 39.626463c14.7741682-11.0843087 34.7259238-16.626463 59.8552667-16.626463s45.0810983 5.5421543 59.8552663 16.626463v71.25627c-19.111329 25.411511-39.4393181 38.117267-60.9839657 38.117267-21.5446475 0-41.1201699-12.705756-58.7265673-38.117267z"/></g><use fill="#3c3008" xlink:href="#a"/><path d="m55.9194643 136.88012c-2.000271-.798547-5.1693931-2.509934-9.5073661-5.134162-5.3445739-4.647443-8.5965549-7.899442-9.755943-9.755997s-1.592714-3.78392-1.2999779-5.782095c.5922943-.934634 1.2100882-1.740857 1.8533818-2.41867.6432937-.677814 1.4437437-1.039881 2.40135-1.086203.1011362-.594956.2244342-1.004261.369894-1.227916.1454598-.223654.4498769-.47199.9132513-.745008l2.1554509.745008v-.745008l-5.8399462-5.396705c-1.0133261-.881692-2.0706112-3.268524-3.1718553-7.1604968-1.1012441-3.8919726-2.5640732-10.4116269-4.3884872-19.5589628-.3629796-1.580249-.506227-2.6766467-.4297421-3.2891932.0589751-.4723158.288679-.9780072.6891115-1.5170742.0590164-.0794486 2.4769752 2.9435223 2.5966235 2.8016537.0100318-.0118948-.0999819-.2120688-.3300412-.600522l-.1373922-.2305558c-.4230097-.7061465-1.1327397-1.8619844-2.1291901-3.4675139l-1.4666343-3.708841c-.9613011-1.7081591-1.4419517-3.2247364-1.4419517-4.549732 0-1.3249955.4806506-2.528885 1.4419517-3.6116685.1985336-2.6407336 1.5529529-5.3565338 4.0632578-8.1474007s7.1459345-6.734588 13.9068887-11.8311632h1.0693169c.369766-.9922109.769211-1.8418121 1.1983348-2.5488034.4291238-.7069914 1.1874465-1.764839 2.274968-3.173543l2.7040448-.7787629c.694188-.8138363 1.4477552-2.0282361 2.2607016-3.6431994.8129464-1.6149632 1.8985398-4.0541582 3.2567801-7.3175849h1.6475112c1.3582403 3.2634267 2.4438337 5.7026217 3.2567801 7.3175849.8129464 1.6149633 1.5665136 2.8293631 2.2607016 3.6431994l2.7040448.7787629c1.0875215 1.408704 1.8458442 2.4665516 2.274968 3.173543.4291238.7069913.8285688 1.5565925 1.1983348 2.5488034h1.0693169c6.7609542 5.0965752 11.3965838 9.0402963 13.9068887 11.8311632s3.8647242 5.5066671 4.0632578 8.1474007c.9613011 1.0827835 1.4419517 2.286673 1.4419517 3.6116685 0 1.3249956-.4806506 2.8415729-1.4419517 4.549732l-1.4666343 3.708841c-.9964504 1.6055295-1.7061804 2.7613674-2.1291901 3.4675139l-.1373922.2305558c-.2300593.3884532-.340073.5886272-.3300412.600522.1196483.1418686 2.5376071-2.8811023 2.5966235-2.8016537.4004325.539067.6301364 1.0447584.6891115 1.5170742.0764849.6125465-.0667625 1.7089442-.4297421 3.2891932-1.824414 9.1473359-3.2872431 15.6669902-4.3884872 19.5589628-1.1012441 3.8919728-2.1585292 6.2788048-3.1718553 7.1604968l-5.8399462 5.396705v.745008l2.1554509-.745008c.4633744.273018.7677915.521354.9132513.745008.1454598.223655.2687578.63296.369894 1.227916.9576063.046322 1.7580563.408389 2.40135 1.086203.6432936.677813 1.2610875 1.484036 1.8533818 2.41867.2927361 1.998175-.1405898 3.92554-1.2999779 5.782095s-4.4113691 5.108554-9.755943 9.755997c-4.337973 2.624228-7.5070951 4.335615-9.5073661 5.134162-2.000271.798546-3.3604496 1.170031-4.0805357 1.114456-.7200861.055575-2.0802647-.31591-4.0805357-1.114456zm-.6105123-64.9519203c-4.7860213.2795813-8.1717428.5640054-10.1571646.8532725-1.9854217.289267-4.4454375.8565405-7.3800473 1.7018205-.4246308.2971201-.7106533.5437488-.8580676.7398863s-.2949001.5262996-.4424574.9904863c.1755242.2013261.386347.3738019.6324684.5174274.2461215.1436255.6693627.3411613 1.2697237.5926074 4.3504306-.680305 7.6846084-1.1674002 10.0025334-1.4612856 2.317925-.2938855 4.8269177-.5476351 7.5269782-.7612489l.3220582-1.0523147c.0011587-.357043-.061657-.6823438-.1884469-.9759022-.12679-.2935584-.369316-.6751414-.7275781-1.144749zm9.382096 0c-.3582621.4696076-.6007881.8511906-.7275781 1.144749-.1267899.2935584-.1896056.6188592-.1884469.9759022l.3220582 1.0523147c2.7000605.2136138 5.2090532.4673634 7.5269782.7612489 2.317925.2938854 5.6521028.7809806 10.0025334 1.4612856.600361-.2514461 1.0236022-.4489819 1.2697237-.5926074.2461214-.1436255.4569442-.3161013.6324684-.5174274-.1475573-.4641867-.2950431-.7943488-.4424574-.9904863s-.4334368-.4427662-.8580676-.7398863c-2.9346098-.84528-5.3946256-1.4125535-7.3800473-1.7018205-1.9854218-.2892671-5.3711433-.5736912-10.1571646-.8532725z" fill="#ffe86e" mask="url(#b)"/></g><g fill="#ffe86e" transform="translate(44 13)"><path d="m57 0 15 21-15 21-15-21z"/><path d="m15 0 15 21-15 21-15-21z"/></g></g></svg>

<?xml version="1.0" encoding="UTF-8"?>
<svg width="160px" height="240px" viewBox="0 0 160 240" version="1.1" xmlns="http://www.w3.org/2000/svg" xmlns:xlink="http://www.w3.org/1999/xlink">
    <title>team_gold_2</title>
    <defs>
        <path d="M6,44.0429903 C19.3671046,34.0143301 37.4186929,29 60.1547651,29 C82.8908372,29 100.942426,34.0143301 114.30953,44.0429903 L114.30953,108.512949 C97.018327,131.504316 78.6263373,143 59.1335609,143 C39.6407846,143 21.9295976,131.504316 6,108.512949 L6,44.0429903 Z" id="path-1"></path>
    </defs>
    <g id="team_gold_2" stroke="none" stroke-width="1" fill="none" fill-rule="evenodd">
        <g id="Group-14" transform="translate(20.000000, 43.000000)">
            <polygon id="Rectangle-Copy-69" fill="#6D5710" points="31 120 89 120 89 156 60 175.440402 31 156"></polygon>
            <path d="M9,11.2148438 C21,3.73828125 37.8333333,0 59.5,0 C81.1666667,0 98,3.73828125 110,11.2148438 L100,54.2148438 L19,54.2148438 L9,11.2148438 Z" id="Rectangle-Copy-75" fill="#6D5710"></path>
            <path d="M0,39.626463 C14.7741682,28.5421543 34.7259238,23 59.8552667,23 C84.9846096,23 104.936365,28.5421543 119.710533,39.626463 L119.710533,110.882733 C100.599204,136.294244 80.2712149,149 58.7265673,149 C37.1819198,149 17.6063974,136.294244 0,110.882733 L0,39.626463 Z" id="Rectangle-Copy-80" fill="#6D5710"></path>
            <mask id="mask-2" fill="white">
                <use xlink:href="#path-1"></use>
            </mask>
            <use id="Rectangle-Copy-83" fill="#3C3008" xlink:href="#path-1"></use>
            <path d="M55.9194643,136.88012 C53.9191933,136.081573 50.7500712,134.370186 46.4120982,131.745958 C41.0675243,127.098515 37.8155433,123.846516 36.6561552,121.989961 C35.4967671,120.133406 35.0634412,118.206041 35.3561773,116.207866 C35.9484716,115.273232 36.5662655,114.467009 37.2095591,113.789196 C37.8528528,113.111382 38.6533028,112.749315 39.6109091,112.702993 C39.7120453,112.108037 39.8353433,111.698732 39.9808031,111.475077 C40.1262629,111.251423 40.43068,111.003087 40.8940544,110.730069 L43.0495053,111.475077 L43.0495053,110.730069 L37.2095591,105.333364 C36.196233,104.451672 35.1389479,102.06484 34.0377038,98.1728672 C32.9364597,94.2808946 31.4736306,87.7612403 29.6492166,78.6139044 C29.286237,77.0336554 29.1429896,75.9372577 29.2194745,75.3247112 C29.2784496,74.8523954 29.5081535,74.346704 29.908586,73.807637 C29.9676024,73.7281884 32.3855612,76.7511593 32.5052095,76.6092907 C32.5152413,76.5973959 32.4052276,76.3972219 32.1751683,76.0087687 L32.0377761,75.7782129 C31.6147664,75.0720664 30.9050364,73.9162285 29.908586,72.310699 L28.4419517,68.601858 C27.4806506,66.8936989 27,65.3771216 27,64.052126 C27,62.7271305 27.4806506,61.523241 28.4419517,60.4404575 C28.6404853,57.7997239 29.9949046,55.0839237 32.5052095,52.2930568 C35.0155144,49.5021899 39.651144,45.5584688 46.4120982,40.4618936 L47.4814151,40.4618936 C47.8511811,39.4696827 48.2506261,38.6200815 48.6797499,37.9130902 C49.1088737,37.2060988 49.8671964,36.1482512 50.9547179,34.7395472 L53.6587627,33.9607843 C54.3529507,33.146948 55.1065179,31.9325482 55.9194643,30.3175849 C56.7324107,28.7026217 57.8180041,26.2634267 59.1762444,23 L60.8237556,23 C62.1819959,26.2634267 63.2675893,28.7026217 64.0805357,30.3175849 C64.8934821,31.9325482 65.6470493,33.146948 66.3412373,33.9607843 L69.0452821,34.7395472 C70.1328036,36.1482512 70.8911263,37.2060988 71.3202501,37.9130902 C71.7493739,38.6200815 72.1488189,39.4696827 72.5185849,40.4618936 L73.5879018,40.4618936 C80.348856,45.5584688 84.9844856,49.5021899 87.4947905,52.2930568 C90.0050954,55.0839237 91.3595147,57.7997239 91.5580483,60.4404575 C92.5193494,61.523241 93,62.7271305 93,64.052126 C93,65.3771216 92.5193494,66.8936989 91.5580483,68.601858 L90.091414,72.310699 C89.0949636,73.9162285 88.3852336,75.0720664 87.9622239,75.7782129 L87.8248317,76.0087687 C87.5947724,76.3972219 87.4847587,76.5973959 87.4947905,76.6092907 C87.6144388,76.7511593 90.0323976,73.7281884 90.091414,73.807637 C90.4918465,74.346704 90.7215504,74.8523954 90.7805255,75.3247112 C90.8570104,75.9372577 90.713763,77.0336554 90.3507834,78.6139044 C88.5263694,87.7612403 87.0635403,94.2808946 85.9622962,98.1728672 C84.8610521,102.06484 83.803767,104.451672 82.7904409,105.333364 L76.9504947,110.730069 L76.9504947,111.475077 L79.1059456,110.730069 C79.56932,111.003087 79.8737371,111.251423 80.0191969,111.475077 C80.1646567,111.698732 80.2879547,112.108037 80.3890909,112.702993 C81.3466972,112.749315 82.1471472,113.111382 82.7904409,113.789196 C83.4337345,114.467009 84.0515284,115.273232 84.6438227,116.207866 C84.9365588,118.206041 84.5032329,120.133406 83.3438448,121.989961 C82.1844567,123.846516 78.9324757,127.098515 73.5879018,131.745958 C69.2499288,134.370186 66.0808067,136.081573 64.0805357,136.88012 C62.0802647,137.678666 60.7200861,138.050151 60,137.994576 C59.2799139,138.050151 57.9197353,137.678666 55.9194643,136.88012 Z M55.308952,71.9281997 C50.5229307,72.207781 47.1372092,72.4922051 45.1517874,72.7814722 C43.1663657,73.0707392 40.7063499,73.6380127 37.7717401,74.4832927 C37.3471093,74.7804128 37.0610868,75.0270415 36.9136725,75.223179 C36.7662582,75.4193165 36.6187724,75.7494786 36.4712151,76.2136653 C36.6467393,76.4149914 36.8575621,76.5874672 37.1036835,76.7310927 C37.349805,76.8747182 37.7730462,77.072254 38.3734072,77.3237001 C42.7238378,76.6433951 46.0580156,76.1562999 48.3759406,75.8624145 C50.6938656,75.568529 53.2028583,75.3147794 55.9029188,75.1011656 L56.224977,74.0488509 C56.2261357,73.6918079 56.16332,73.3665071 56.0365301,73.0729487 C55.9097401,72.7793903 55.6672141,72.3978073 55.308952,71.9281997 Z M64.691048,71.9281997 C64.3327859,72.3978073 64.0902599,72.7793903 63.9634699,73.0729487 C63.83668,73.3665071 63.7738643,73.6918079 63.775023,74.0488509 L64.0970812,75.1011656 C66.7971417,75.3147794 69.3061344,75.568529 71.6240594,75.8624145 C73.9419844,76.1562999 77.2761622,76.6433951 81.6265928,77.3237001 C82.2269538,77.072254 82.650195,76.8747182 82.8963165,76.7310927 C83.1424379,76.5874672 83.3532607,76.4149914 83.5287849,76.2136653 C83.3812276,75.7494786 83.2337418,75.4193165 83.0863275,75.223179 C82.9389132,75.0270415 82.6528907,74.7804128 82.2282599,74.4832927 C79.2936501,73.6380127 76.8336343,73.0707392 74.8482126,72.7814722 C72.8627908,72.4922051 69.4770693,72.207781 64.691048,71.9281997 Z" id="Combined-Shape-Copy-26" fill="#FFE86E" mask="url(#mask-2)"></path>
        </g>
        <g id="Group-3-Copy-11" transform="translate(44.000000, 13.000000)" fill="#FFE86E">
            <polygon id="Polygon-Copy-43" points="57 0 72 21 57 42 42 21"></polygon>
            <polygon id="Polygon-Copy-48" points="15 0 30 21 15 42 0 21"></polygon>
        </g>
    </g>
</svg>
